src/images_karasa_jaga_svg/cmd/lc_calloutshapes.round-callout.svg

<svg height="24" viewBox="0 0 24 24" width="24" xmlns="http://www.w3.org/2000/svg" xmlns:xlink="http://www.w3.org/1999/xlink"><linearGradient id="a" gradientUnits="userSpaceOnUse" x1="72" x2="72" y1="128" y2="0"><stop offset="0" stop-color="#fff"/><stop offset=".59375" stop-color="#fff"/><stop offset=".84375" stop-color="#f1f1f1"/><stop offset=".90625" stop-color="#eaeaea"/><stop offset="1" stop-color="#dfdfdf"/></linearGradient><linearGradient id="b" gradientUnits="userSpaceOnUse" x1="-.019534" x2="128.01758" y1="66.908783" y2="66.908783"><stop offset="0" stop-color="#7c9fcf"/><stop offset=".5" stop-color="#7c9ece"/><stop offset="1" stop-color="#7b9dcf"/></linearGradient><g transform="matrix(.171875 0 0 .171875 1.000165 1)"><path d="m64 11.619141c-16.230164-.000117-32.391592 4.280179-44.333984 12.080078-11.9423931 7.799899-19.68554725 19.469131-19.68554725 31.757812a5.8389341 5.8389341 0 0 0 0 .01172c.03214007 15.702231 12.80189525 29.779333 30.61914025 37.335937l-12.333984 20.554692a5.8389341 5.8389341 0 0 0 8.744141 7.48828l26.736328-22.279301c3.39461.377891 6.805825.720986 10.24414.726563a5.8389341 5.8389341 0 0 0 .0098 0c16.229818-.000239 32.39007-4.280199 44.332026-12.080078 11.94196-7.799879 19.68555-19.469394 19.68555-31.757813s-7.74359-23.957933-19.68555-31.757812c-11.94199-7.799879-28.102242-12.07984-44.33206-12.080078z" fill="url(#b)"/><path d="m64 17.457031a58.181 38 0 0 0 -58.1816406 38 58.181 38 0 0 0 33.4003906 34.330078l-15.947266 26.576171 28.527344-23.771483a58.181 38 0 0 0 12.201172.865234 58.181 38 0 0 0 58.17969-38 58.181 38 0 0 0 -58.17969-38z" fill="url(#a)"/></g></svg>

<?xml version="1.0" encoding="UTF-8" standalone="no"?>
<!-- Created with Inkscape (http://www.inkscape.org/) -->

<svg
   xmlns:dc="http://purl.org/dc/elements/1.1/"
   xmlns:cc="http://creativecommons.org/ns#"
   xmlns:rdf="http://www.w3.org/1999/02/22-rdf-syntax-ns#"
   xmlns:svg="http://www.w3.org/2000/svg"
   xmlns="http://www.w3.org/2000/svg"
   xmlns:xlink="http://www.w3.org/1999/xlink"
   xmlns:sodipodi="http://sodipodi.sourceforge.net/DTD/sodipodi-0.dtd"
   xmlns:inkscape="http://www.inkscape.org/namespaces/inkscape"
   version="1.1"
   id="svg2"
   width="128"
   height="128"
   viewBox="0 0 128 128"
   sodipodi:docname="lc_calloutshapes.round-callout.svg"
   inkscape:export-filename="/home/rizmut/Dokumen/Rizmut/Github/libreoffice-style-karasa-jaga/build/images_karasa_jaga/cmd/lc_calloutshapes.round-callout.png"
   inkscape:export-xdpi="16.5"
   inkscape:export-ydpi="16.5"
   inkscape:version="0.92.3 (unknown)">
  <metadata
     id="metadata8">
    <rdf:RDF>
      <cc:Work
         rdf:about="">
        <dc:format>image/svg+xml</dc:format>
        <dc:type
           rdf:resource="http://purl.org/dc/dcmitype/StillImage" />
        <dc:title></dc:title>
      </cc:Work>
    </rdf:RDF>
  </metadata>
  <defs
     id="defs6">
    <linearGradient
       inkscape:collect="always"
       id="linearGradient825">
      <stop
         style="stop-color:#f9f9fa;stop-opacity:1;"
         offset="0"
         id="stop821" />
      <stop
         style="stop-color:#f9f9fa;stop-opacity:0;"
         offset="1"
         id="stop823" />
    </linearGradient>
    <linearGradient
       inkscape:collect="always"
       xlink:href="#linearGradient825"
       id="linearGradient1536"
       x1="70.052383"
       y1="-18.468208"
       x2="62.030193"
       y2="84.412926"
       gradientUnits="userSpaceOnUse" />
    <linearGradient
       id="linearGradient3369">
      <stop
         id="stop3372"
         offset="0"
         style="stop-color:#ffffff;stop-opacity:1;" />
      <stop
         style="stop-color:#ffffff;stop-opacity:1;"
         offset="0.59375"
         id="stop3374" />
      <stop
         style="stop-color:#f1f1f1;stop-opacity:1;"
         offset="0.84375"
         id="stop3376" />
      <stop
         id="stop3378"
         offset="0.90625"
         style="stop-color:#eaeaea;stop-opacity:1;" />
      <stop
         id="stop3384"
         offset="1"
         style="stop-color:#dfdfdf;stop-opacity:1;" />
    </linearGradient>
    <linearGradient
       id="linearGradient7422">
      <stop
         style="stop-color:#7c9fcf;stop-opacity:1"
         offset="0"
         id="stop7424" />
      <stop
         id="stop5348"
         offset="0.5"
         style="stop-color:#7c9ece;stop-opacity:1" />
      <stop
         id="stop7426"
         offset="1"
         style="stop-color:#7b9dcf;stop-opacity:1" />
    </linearGradient>
    <linearGradient
       inkscape:collect="always"
       xlink:href="#linearGradient3369"
       id="linearGradient8528"
       x1="72"
       y1="128"
       x2="72"
       y2="0"
       gradientUnits="userSpaceOnUse" />
    <linearGradient
       inkscape:collect="always"
       xlink:href="#linearGradient7422"
       id="linearGradient927"
       x1="-0.019534189"
       y1="66.908783"
       x2="128.01758"
       y2="66.908783"
       gradientUnits="userSpaceOnUse" />
  </defs>
  <sodipodi:namedview
     pagecolor="#ffffff"
     bordercolor="#666666"
     borderopacity="1"
     objecttolerance="10"
     gridtolerance="10"
     guidetolerance="10"
     inkscape:pageopacity="0"
     inkscape:pageshadow="2"
     inkscape:window-width="1366"
     inkscape:window-height="706"
     id="namedview4"
     showgrid="true"
     inkscape:snap-page="true"
     inkscape:snap-global="true"
     inkscape:zoom="1.4142136"
     inkscape:cx="-62.152043"
     inkscape:cy="61.486755"
     inkscape:window-x="0"
     inkscape:window-y="0"
     inkscape:window-maximized="1"
     inkscape:current-layer="svg2"
     inkscape:snap-smooth-nodes="true">
    <inkscape:grid
       type="xygrid"
       id="grid27"
       spacingx="5.8181"
       spacingy="5.8181"
       empspacing="1" />
  </sodipodi:namedview>
  <path
     id="circle1528"
     style="opacity:1;fill:url(#linearGradient1536);fill-opacity:1;stroke:none;stroke-width:3.85701394;stroke-linecap:round;stroke-linejoin:bevel;stroke-miterlimit:4;stroke-dasharray:none;stroke-dashoffset:0;stroke-opacity:0.73039216"
     r="42.122112"
     cy="64"
     cx="64" />
  <path
     sodipodi:type="inkscape:offset"
     inkscape:radius="5.8383503"
     inkscape:original="M 64 17.457031 A 58.181 38 0 0 0 5.8183594 55.457031 A 58.181 38 0 0 0 39.21875 89.787109 L 23.271484 116.36328 L 51.798828 92.591797 A 58.181 38 0 0 0 64 93.457031 A 58.181 38 0 0 0 122.17969 55.457031 A 58.181 38 0 0 0 64 17.457031 z "
     style="opacity:1;fill:url(#linearGradient927);fill-opacity:1.0;stroke:none;stroke-width:5.29160166;stroke-linecap:square;stroke-linejoin:bevel;stroke-miterlimit:4;stroke-dasharray:none;stroke-dashoffset:0;stroke-opacity:0.73039216"
     id="path917"
     d="M 64,11.619141 C 47.769836,11.619024 31.608408,15.89932 19.666016,23.699219 7.7236229,31.499118 -0.01953125,43.16835 -0.01953125,55.457031 a 5.8389341,5.8389341 0 0 0 0,0.01172 C 0.01260882,71.170982 12.782364,85.248084 30.599609,92.804688 L 18.265625,113.35938 a 5.8389341,5.8389341 0 0 0 8.744141,7.48828 L 53.746094,98.568359 c 3.39461,0.377891 6.805825,0.720986 10.24414,0.726563 a 5.8389341,5.8389341 0 0 0 0.0098,0 c 16.229818,-2.39e-4 32.39007,-4.280199 44.33203,-12.080078 11.94196,-7.799879 19.68555,-19.469394 19.68555,-31.757813 0,-12.288419 -7.74359,-23.957933 -19.68555,-31.757812 C 96.39007,15.89934 80.229818,11.619379 64,11.619141 Z" />
  <path
     style="opacity:1;fill:url(#linearGradient8528);fill-opacity:1;stroke:none;stroke-width:5.29160166;stroke-linecap:square;stroke-linejoin:bevel;stroke-miterlimit:4;stroke-dasharray:none;stroke-dashoffset:0;stroke-opacity:0.73039216"
     d="M 64 17.457031 A 58.181 38 0 0 0 5.8183594 55.457031 A 58.181 38 0 0 0 39.21875 89.787109 L 23.271484 116.36328 L 51.798828 92.591797 A 58.181 38 0 0 0 64 93.457031 A 58.181 38 0 0 0 122.17969 55.457031 A 58.181 38 0 0 0 64 17.457031 z "
     id="rect8502" />
</svg>
